X:1
T:Pota Mor Fatai
L:1/8
M:6/8
I:linebreak $
K:C
V:1 treble 
V:1
 A3 A2 c | AGE c3 | dcA GEA | DED DEG | A3 A2 c | AGE c3 | dcA GEA |1 DED DEG :|2 DED D3 ||$ %9
 d3 ecA | d>dd e2 d | AcA GEA | DED DFA | d3 ecA | d>dd e2 d | ded dcA | AGE DE/F/G | %17
